X: 15826
T: Gordon's
R: reel
M: 4/4
K: Emajor
|:ebbb bage|zBce f2eB|Bccc cdef|zffe fgbf|
ebbb bage|zBce f2eB|Bccc cdef|[M:6/8] zff efg:|
M:4/4
|:c'4 bc'ge|zBce f2eB|Bccc cdef|zffe fgbf|
c'4 bc'ge|zBce f2eB|Bccc cdef|[M:6/8] zff efg:|

